public/dandelion.svg

<svg xmlns="http://www.w3.org/2000/svg" width="288" height="500" fill="none"><path fill="#fff" fill-rule="evenodd" d="M90.964 344.939c9.582-2.666 61.347-26.845 84.091-39.278 1.941-1.061 36.367-22.188 31.778-17.55-1.705 1.721-41.533 29.315-58.27 39.843-10.298 6.477-26.176 18.792-36.136 28.027-1.7 1.577-5.343 4.736-8.096 7.02-7.382 6.129-6.668 7.292 1.593 2.597 7.555-4.294 30.363-19.074 40.219-26.063 11.023-7.817 22.761-14.944 33.283-23.432 10.349-8.341 17.892-12.852 28.386-21.011 6.992-5.436 12.067-6.93 1.946 1.861-2.785 2.42-4.436 5.617-12.403 12.675-18.943 16.777-30.377 26.838-37.658 33.133-9.087 7.857-50.228 46.595-50.632 47.674-.589 1.571 8.165-3.343 15.906-8.929 8.179-5.904 21.019-16.504 58.426-48.231 23.638-20.05 36.11-35.748 37.097-33.253 2.156 5.456-45.99 56.536-48.5 60.1-18.833 26.746-24.264 35.503-30.218 48.731-3.784 8.403-4.275 11.523-1.427 9.064 2.704-2.333 11.912-14.038 24.879-31.623 8.908-12.083 18.709-23.73 26.88-36.332 6.061-9.344 25.577-35.513 26.283-35.249.645.242-17.76 34.767-19.311 36.872-4.421 5.995-27.274 68.265-28.231 76.926-.414 3.741 2.033-.617 9.118-16.236 12.422-27.384 27.391-53.519 39.077-81.174 4.173-9.876 13.479-31.635 13.852-31.495.796.298-5.774 20.074-7.668 26.444-1.361 4.576-2.395 8.814-4.518 18.513-5.772 26.386-12.533 52.54-18.241 78.937-2.204 10.196-4.622 20.684-5.372 23.308-.749 2.623-.92 4.926-.378 5.117 1.256.441 12.537-31.24 21.141-59.369 6.796-22.221 13.45-44.524 17.86-67.362 1.14-5.915 2.226-8.457 2.942-6.885.123.27-.023 4.169-.326 8.663a6081.343 6081.343 0 0 0-1.597 25.128c-.845 13.678-1.839 27.362-3.181 41.002-2.286 23.261-4.089 61.913-3.001 64.305.681 1.496 1.983-4.403 2.73-12.374 3.561-37.908 10.6-75.297 13.28-113.337.977-13.872-4.77-34.357-3.993-32.649.893 1.963 9.042 25.961 9.45 33.461 1.925 35.546 5.579 70.955 5.962 106.611.075 6.852 1.408 15.127 2.123 13.172 1.282-3.502 3.886-56.907 3.691-75.701-.168-16.268-1.582-28.253-3.171-35.364-.973-4.358-11.727-47.8-10.84-46.847 1.162 1.251 16.052 43.961 18.113 54.56 2.811 14.453 6.03 29.155 9.398 43.481 8.629 36.712 10.718 44.334 12.203 44.524 1.272.161 1.297-2.377.148-14.987-2.389-26.223-8.165-52.476-19.004-86.389-6.38-19.958-17.708-45.047-17.195-46.417.514-1.372 11.69 21.966 20.43 40 4.975 10.265 6.763 14.285 10.77 24.214 7.9 19.576 34.673 69.034 38.055 70.3 3.287 1.231-16.76-43.821-31.61-71.036-10.695-19.6-24.289-44.153-22.129-42.568.762.559 8.391 10.531 10.581 13.764 4.954 7.317 13.861 20.096 23.838 34.197 7.637 10.794 14.61 22.107 22.606 32.64 11.034 14.534 15.683 20.38 16.952 21.321 2.296 1.701-2.882-8.797-8.52-17.272-11.841-17.809-22.612-36.64-36.726-52.778-3.232-3.695-33.006-44.199-33.512-46.965-.413-2.255 21.683 24.551 25.037 27.873 3.811 3.776 6.711 8.298 10.404 12.21 2.979 3.155 7.481 8.258 10.004 11.339 8.397 10.25 18.449 19.196 27.802 28.548 7.538 7.535 12.227 11.264 11.229 8.928-.713-1.666-10.425-13.744-24.434-30.386-4.598-5.461-9.369-11.2-10.602-12.753-1.234-1.554-7.637-8.528-14.229-15.498-11.605-12.27-33.206-33.422-34.355-35.86-1.04-2.208 14.168 9.869 17.322 13.124 1.728 1.781 7.792 7.302 13.476 12.269 5.684 4.966 15.164 13.698 21.067 19.403 14.901 14.402 49.254 41.577 55.611 43.992 2.563.973 2.567.961.45-1.519-7.335-8.596-38.291-37.68-52.597-49.419-9.76-8.006-18.753-16.916-28.677-24.721-3.593-2.825-22.511-17.713-22.823-18.399-1.528-3.357 17.929 10.443 35.895 21.656 16.813 10.493 38.179 23.428 42.475 25.714 14.936 7.949 42.511 21.758 43.768 21.918 1.63.207-4.166-4.083-14.321-10.6-10.294-6.607-20.241-13.71-30.843-19.835-14.103-8.146-27.053-18.299-41.377-26.018-4.83-2.604-22.205-10.727-18.104-9.26 1.623.581 34.313 12.929 52.832 19.743 21.228 7.809 42.755 16.915 65.083 21.123l-6.087-3.118c-7.78-3.986-17.454-7.982-54.06-22.326-16.329-6.398-32.712-13.225-36.404-15.17-3.872-2.039-22.912-7.504-26.888-9.274-2.685-1.195 13.55 2.608 20.194 3.729 27.825 4.693 55.186 11.837 82.684 18.117 17.226 3.932 30.354 6.588 30.976 6.266 1.257-.649-31.415-10.765-42.321-13.103-4.952-1.062-49.91-13.198-65.103-17.574-7.346-2.116-16.864-4.723-21.149-5.794-14.105-3.525-15.119-3.825-14.897-4.42 2.655-7.047 68.145 1.274 77.547 2.269 16.035 1.698 32.108 2.916 48.134 4.729 11.053 1.25 20.182 2.044 20.287 1.764.389-1.041-29.407-6.937-59.268-11.73-38.9-6.243-64.673-7.7-87.117-4.925-5.864.725-10.812.988-10.995.585-1.509-3.315 43.122-20.665 74.377-28.913 12.842-3.39 61.478-13.529 80.608-16.805 5.326-.911 12.155-2.471 15.177-3.466l5.495-1.808-1.284-2.821c-1.227-2.697-1.592-2.779-8.256-1.845-15.949 2.235-62.927 12.722-78.543 17.533-2.65.817-8.357 2.401-12.682 3.52-16.879 4.367-34.688 10.892-55.176 20.218-11.466 5.219-20.981 9.178-21.143 8.799-.679-1.58 13.272-18.834 37.599-46.497a3784.038 3784.038 0 0 0 14.816-16.935c12.384-14.312 27.107-25.118 50.651-37.173l14.257-7.299-6.444 1.532c-19.395 4.613-50.753 23.746-65.668 40.067-6.204 6.791-13.126 12.88-19.12 19.869-5.032 5.865-33.757 39.784-33.548 38.136.914-7.197 33.326-45.314 37.098-51.484 5.182-8.478 11.759-16.046 17.468-24.165 13.999-19.903 22.139-27.136 42.775-38.004 6.169-3.248 11.07-6.225 10.892-6.616-.465-1.021-22.916 7.849-29.712 11.738-13.275 7.6-29.971 24.052-38.839 38.274-1.96 3.143-5.081 7.691-6.935 10.109-1.855 2.417-5.724 7.918-8.599 12.223-2.874 4.306-11.595 17.84-11.997 17.415-1.412-1.498 6.209-16.735 11.697-27.824a2062.6 2062.6 0 0 0 9.282-19.003c10.72-22.375 25.254-43.34 44.863-64.713 2.424-2.642 4.075-4.672 3.668-4.512-1.586.625-13.751 9.76-18.779 14.103-17.1 14.77-35.466 44.42-47.508 76.7-6.116 16.393-24.941 54.361-16.24 27.612.34-6.776 11.207-34.656 19.522-51.936 11.725-24.369 17.557-41.643 19.267-57.071.871-7.856 2.166-13.815 3.43-15.785 1.116-1.74 4.549-6.961 7.627-11.602 3.079-4.64 5.533-8.579 5.454-8.75-.175-.385-12.475 13.99-14.678 14.993-.018.008-.81-12.816-2.464-12.063-.408.186-1.481 4.337-2.382 9.226-1.456 7.893-2.302 9.795-7.567 17.011-17.865 24.488-17.215 30.112-31.847 61.846-1.787 3.876-8.5 24.497-8.842 24.368-2.123-.794 10.088-54.473 17.746-74.407 3.517-9.154 7.798-22.172 9.513-28.928 3.049-12.009 3.152-16.215.231-9.417-9.106 21.18-23.688 56.492-25.898 62.714-2.373 6.683-5.647 23.819-8.31 43.503-1.368 10.116 3.51 33.422 2.356 31.045-1.429-2.941-8.722-48.649-8.701-57.378.069-29.904 1.085-49.786 3.253-63.606.511-3.254 1.217-9.261 1.569-13.35 1.477-17.126-7.284 19.86-7.721 21.793-5.706 25.23-6.276 28.68-6.681 40.44-.507 14.656.168 23.39 2.974 38.471 1.391 7.478 14.152 50.048 13.887 50.757-1.18 3.152-17.041-41.319-21.08-55.637-1.057-3.749-3.768-13.145-6.023-20.881-2.257-7.735-6.148-22.774-8.649-33.42-4.828-20.558-13.272-44.536-15.795-44.857-1.51-.191-1.398.711 1.724 13.906 2.778 11.749 4.341 23.678 6.308 35.583 3.509 21.227 6.169 31.448 13.169 50.59 4.756 13.011 22.027 58.21 23.937 64.774 1.778 6.11-13.171-27.254-22.471-43.467-11.911-20.764-20.692-41.572-26.258-62.212-4.77-17.694-12.224-38.634-15.518-43.6-3.625-5.465 3.09 21.962 4.086 26.83 9.271 45.339 24.089 73.78 46.471 112.891 4.612 8.057 2.353 6.513-6.054-1.232-16.164-14.893-30.639-34.361-45.694-63.112l-17.423-33.271c-4.6-8.784-9.794-17.727-11.54-19.874-3.142-3.86-3.116-3.734 2.401 11.542 8.02 22.208 21.419 54.122 25.898 61.682 6.924 11.688 25.486 30.841 35.159 40.439-13.149-11.298-35.948-33.011-47.847-45.651l-12.333-16.218-10.672-17.809c-11.576-23.032-18.228-35.48-18.531-34.672-.251.674 3.35 12.322 8.09 26.164 5.198 15.183 10.91 26.938 18.471 38.01 3.645 5.339 29.973 29.992 30.171 30.428.901 1.978-25.024-18.875-35.488-24.083-20.849-10.377-53.48-24.509-52.716-22.83 2.306 5.067 16.827 10.918 21.463 13.578 11.972 6.866 29.745 18.338 41.368 26.699 4.492 3.233 15.122 10.292 23.622 15.69s17.652 11.477 20.34 13.512c1.473 1.115 33.415 15.907 33.128 18.17-.18 1.41-31.487-12.28-48.237-20.237-26.051-12.373-56.395-24.691-77.502-31.458-14.844-4.758-26.293-7.573-26.673-6.556-.136.361 5.947 3.224 13.516 6.362 28.015 11.613 55.122 25.137 81.66 39.763 9.33 5.143 52.371 12.397 56.732 21.978.565 1.242-8.319-1.241-12.447-2.717-9.923-3.552-20.913-5.588-31.103-8.367-11.582-3.157-50.159-14.67-60.375-18.018-12.275-4.025-24.641-7.777-36.973-11.627-2.252-.703-27.948-8.742-21.544-4.576 15.534 10.11 52.316 25.626 79.161 33.394 16.517 4.78 44.6 7.543 61.969 14.358 10.26 4.025-16.384 1.997-18.514 1.783-6.332-.636-14.951-1.649-19.152-2.25-16.007-2.291-26.662-3.372-38.589-3.916-6.788-.309-22.872-1.068-35.743-1.688-12.87-.619-23.77-.781-24.223-.36-1.393 1.294 23.135 7.488 40.631 10.263 25.743 4.079 51.913 4.841 77.519 8.795 3.628.558 47.944-3.469 29.618 1.896-5.361 1.571-38.717 8.32-50.425 10.202-14.524 2.332-28.947 4.294-43.611 6.077-28.43 3.458-38.833 4.955-39.084 5.625-1.036 2.768 29.748 3.399 58.163 1.194 6.301-.489 29.888-5.384 29.953-4.701.146 1.555-21.924 7.768-29.303 8.917-16.927 2.633-56.899 14.554-54.404 16.225 1.68 1.124 27.192-2.075 45.35-5.686 5.612-1.116 88.905-32.717 89.679-31.015.264.579-38.417 19.303-51.859 25.468-11.216 5.145-22.079 10.561-32.889 16.453-15.257 8.318-36.11 21.214-37.689 23.311-.666.885.612.879 3.837-.019Zm164.651-186.722c11.168-28.668 22.866-51.75 24.456-48.257 1.876 4.121-30.332 90.416-38.822 102.199-6.085 8.446 4.145-25.101 14.366-53.942Z" clip-rule="evenodd"/></svg>

<svg width="288" height="500" viewBox="0 0 288 500" fill="none" xmlns="http://www.w3.org/2000/svg">
<path fill-rule="evenodd" clip-rule="evenodd" d="M90.9643 344.939C100.546 342.273 152.311 318.094 175.055 305.661C176.996 304.6 211.422 283.473 206.833 288.111C205.128 289.832 165.3 317.426 148.563 327.954C138.265 334.431 122.387 346.746 112.427 355.981C110.727 357.558 107.084 360.717 104.331 363.001C96.9494 369.13 97.6632 370.293 105.924 365.598C113.479 361.304 136.287 346.524 146.143 339.535C157.166 331.718 168.904 324.591 179.426 316.103C189.775 307.762 197.318 303.251 207.812 295.092C214.804 289.656 219.879 288.162 209.758 296.953C206.973 299.373 205.322 302.57 197.355 309.628C178.412 326.405 166.978 336.466 159.697 342.761C150.61 350.618 109.469 389.356 109.065 390.435C108.476 392.006 117.23 387.092 124.971 381.506C133.15 375.602 145.99 365.002 183.397 333.275C207.035 313.225 219.507 297.527 220.494 300.022C222.65 305.478 174.504 356.558 171.994 360.122C153.161 386.868 147.73 395.625 141.776 408.853C137.992 417.256 137.501 420.376 140.349 417.917C143.053 415.584 152.261 403.879 165.228 386.294C174.136 374.211 183.937 362.564 192.108 349.962C198.169 340.618 217.685 314.449 218.391 314.713C219.036 314.955 200.631 349.48 199.08 351.585C194.659 357.58 171.806 419.85 170.849 428.511C170.435 432.252 172.882 427.894 179.967 412.275C192.389 384.891 207.358 358.756 219.044 331.101C223.217 321.225 232.523 299.466 232.896 299.606C233.692 299.904 227.122 319.68 225.228 326.05C223.867 330.626 222.833 334.864 220.71 344.563C214.938 370.949 208.177 397.103 202.469 423.5C200.265 433.696 197.847 444.184 197.097 446.808C196.348 449.431 196.177 451.734 196.719 451.925C197.975 452.366 209.256 420.685 217.86 392.556C224.656 370.335 231.31 348.032 235.72 325.194C236.86 319.279 237.946 316.737 238.662 318.309C238.785 318.579 238.639 322.478 238.336 326.972C238.033 331.466 237.315 342.774 236.739 352.1C235.894 365.778 234.9 379.462 233.558 393.102C231.272 416.363 229.469 455.015 230.557 457.407C231.238 458.903 232.54 453.004 233.287 445.033C236.848 407.125 243.887 369.736 246.567 331.696C247.544 317.824 241.797 297.339 242.574 299.047C243.467 301.01 251.616 325.008 252.024 332.508C253.949 368.054 257.603 403.463 257.986 439.119C258.061 445.971 259.394 454.246 260.109 452.291C261.391 448.789 263.995 395.384 263.8 376.59C263.632 360.322 262.218 348.337 260.629 341.226C259.656 336.868 248.902 293.426 249.789 294.379C250.951 295.63 265.841 338.34 267.902 348.939C270.713 363.392 273.932 378.094 277.3 392.42C285.929 429.132 288.018 436.754 289.503 436.944C290.775 437.105 290.8 434.567 289.651 421.957C287.262 395.734 281.486 369.481 270.647 335.568C264.267 315.61 252.939 290.521 253.452 289.151C253.966 287.779 265.142 311.117 273.882 329.151C278.857 339.416 280.645 343.436 284.652 353.365C292.552 372.941 319.325 422.399 322.707 423.665C325.994 424.896 305.947 379.844 291.097 352.629C280.402 333.029 266.808 308.476 268.968 310.061C269.73 310.62 277.359 320.592 279.549 323.825C284.503 331.142 293.41 343.921 303.387 358.022C311.024 368.816 317.997 380.129 325.993 390.662C337.027 405.196 341.676 411.042 342.945 411.983C345.241 413.684 340.063 403.186 334.425 394.711C322.584 376.902 311.813 358.071 297.699 341.933C294.467 338.238 264.693 297.734 264.187 294.968C263.774 292.713 285.87 319.519 289.224 322.841C293.035 326.617 295.935 331.139 299.628 335.051C302.607 338.206 307.109 343.309 309.632 346.39C318.029 356.64 328.081 365.586 337.434 374.938C344.972 382.473 349.661 386.202 348.663 383.866C347.95 382.2 338.238 370.122 324.229 353.48C319.631 348.019 314.86 342.28 313.627 340.727C312.393 339.173 305.99 332.199 299.398 325.229C287.793 312.959 266.192 291.807 265.043 289.369C264.003 287.161 279.211 299.238 282.365 302.493C284.093 304.274 290.157 309.795 295.841 314.762C301.525 319.728 311.005 328.46 316.908 334.165C331.809 348.567 366.162 375.742 372.519 378.157C375.082 379.13 375.086 379.118 372.969 376.638C365.634 368.042 334.678 338.958 320.372 327.219C310.612 319.213 301.619 310.303 291.695 302.498C288.102 299.673 269.184 284.785 268.872 284.099C267.344 280.742 286.801 294.542 304.767 305.755C321.58 316.248 342.946 329.183 347.242 331.469C362.178 339.418 389.753 353.227 391.01 353.387C392.64 353.594 386.844 349.304 376.689 342.787C366.395 336.18 356.448 329.077 345.846 322.952C331.743 314.806 318.793 304.653 304.469 296.934C299.639 294.33 282.264 286.207 286.365 287.674C287.988 288.255 320.678 300.603 339.197 307.417C360.425 315.226 381.952 324.332 404.28 328.54L398.193 325.422C390.413 321.436 380.739 317.44 344.133 303.096C327.804 296.698 311.421 289.871 307.729 287.926C303.857 285.887 284.817 280.422 280.841 278.652C278.156 277.457 294.391 281.26 301.035 282.381C328.86 287.074 356.221 294.218 383.719 300.498C400.945 304.43 414.073 307.086 414.695 306.764C415.952 306.115 383.28 295.999 372.374 293.661C367.422 292.599 322.464 280.463 307.271 276.087C299.925 273.971 290.407 271.364 286.122 270.293C272.017 266.768 271.003 266.468 271.225 265.873C273.88 258.826 339.37 267.147 348.772 268.142C364.807 269.84 380.88 271.058 396.906 272.871C407.959 274.121 417.088 274.915 417.193 274.635C417.582 273.594 387.786 267.698 357.925 262.905C319.025 256.662 293.252 255.205 270.808 257.98C264.944 258.705 259.996 258.968 259.813 258.565C258.304 255.25 302.935 237.9 334.19 229.652C347.032 226.262 395.668 216.123 414.798 212.847C420.124 211.936 426.953 210.376 429.975 209.381L435.47 207.573L434.186 204.752C432.959 202.055 432.594 201.973 425.93 202.907C409.981 205.142 363.003 215.629 347.387 220.44C344.737 221.257 339.03 222.841 334.705 223.96C317.826 228.327 300.017 234.852 279.529 244.178C268.063 249.397 258.548 253.356 258.386 252.977C257.707 251.397 271.658 234.143 295.985 206.48C301.56 200.141 308.227 192.52 310.801 189.545C323.185 175.233 337.908 164.427 361.452 152.372L375.709 145.073L369.265 146.605C349.87 151.218 318.512 170.351 303.597 186.672C297.393 193.463 290.471 199.552 284.477 206.541C279.445 212.406 250.72 246.325 250.929 244.677C251.843 237.48 284.255 199.363 288.027 193.193C293.209 184.715 299.786 177.147 305.495 169.028C319.494 149.125 327.634 141.892 348.27 131.024C354.439 127.776 359.34 124.799 359.162 124.408C358.697 123.387 336.246 132.257 329.45 136.146C316.175 143.746 299.479 160.198 290.611 174.42C288.651 177.563 285.53 182.111 283.676 184.529C281.821 186.946 277.952 192.447 275.077 196.752C272.203 201.058 263.482 214.592 263.08 214.167C261.668 212.669 269.289 197.432 274.777 186.343C277.824 180.187 282.001 171.635 284.059 167.34C294.779 144.965 309.313 124 328.922 102.627C331.346 99.9854 332.997 97.955 332.59 98.1146C331.004 98.74 318.839 107.875 313.811 112.218C296.711 126.988 278.345 156.638 266.303 188.918C260.187 205.311 241.362 243.279 250.063 216.53C250.403 209.754 261.27 181.874 269.585 164.594C281.31 140.225 287.142 122.951 288.852 107.523C289.723 99.6665 291.018 93.7078 292.282 91.7379C293.398 89.9971 296.831 84.777 299.909 80.136C302.988 75.4959 305.442 71.5574 305.363 71.3854C305.188 71.0014 292.888 85.3767 290.685 86.3792C290.667 86.3874 289.875 73.5635 288.221 74.316C287.813 74.502 286.74 78.6534 285.839 83.5417C284.383 91.435 283.537 93.3374 278.272 100.553C260.407 125.041 261.057 130.665 246.425 162.399C244.638 166.275 237.925 186.896 237.583 186.767C235.46 185.973 247.671 132.294 255.329 112.36C258.846 103.206 263.127 90.1877 264.842 83.4321C267.891 71.4231 267.994 67.2175 265.073 74.0146C255.967 95.1947 241.385 130.507 239.175 136.729C236.802 143.412 233.528 160.548 230.865 180.232C229.497 190.348 234.375 213.654 233.221 211.277C231.792 208.336 224.499 162.628 224.52 153.899C224.589 123.995 225.605 104.113 227.773 90.2929C228.284 87.0389 228.99 81.0318 229.342 76.9437C230.819 59.8168 222.058 96.8034 221.621 98.736C215.915 123.966 215.345 127.416 214.94 139.176C214.433 153.832 215.108 162.566 217.914 177.647C219.305 185.125 232.066 227.695 231.801 228.404C230.621 231.556 214.76 187.085 210.721 172.767C209.664 169.018 206.953 159.622 204.698 151.886C202.441 144.151 198.55 129.112 196.049 118.466C191.221 97.9084 182.777 73.9301 180.254 73.6093C178.744 73.4176 178.856 74.3203 181.978 87.5147C184.756 99.2639 186.319 111.193 188.286 123.098C191.795 144.325 194.455 154.546 201.455 173.688C206.211 186.699 223.482 231.898 225.392 238.462C227.17 244.572 212.221 211.208 202.921 194.995C191.01 174.231 182.229 153.423 176.663 132.783C171.893 115.089 164.439 94.1492 161.145 89.1827C157.52 83.7178 164.235 111.145 165.231 116.013C174.502 161.352 189.32 189.793 211.702 228.904C216.314 236.961 214.055 235.417 205.648 227.672C189.484 212.779 175.009 193.311 159.954 164.56C154.971 155.044 147.131 140.072 142.531 131.289C137.931 122.505 132.737 113.562 130.991 111.415C127.849 107.555 127.875 107.681 133.392 122.957C141.412 145.165 154.811 177.079 159.29 184.639C166.214 196.327 184.776 215.48 194.449 225.078C181.3 213.78 158.501 192.067 146.602 179.427L134.269 163.209L123.597 145.4C112.021 122.368 105.369 109.92 105.066 110.728C104.815 111.402 108.416 123.05 113.156 136.892C118.354 152.075 124.066 163.83 131.627 174.902C135.272 180.241 161.6 204.894 161.798 205.33C162.699 207.308 136.774 186.455 126.31 181.247C105.461 170.87 72.8301 156.738 73.5945 158.417C75.9005 163.484 90.4207 169.335 95.0565 171.995C107.029 178.861 124.802 190.333 136.425 198.694C140.917 201.927 151.547 208.986 160.047 214.384C168.547 219.782 177.699 225.861 180.387 227.896C181.86 229.011 213.802 243.803 213.515 246.066C213.335 247.476 182.028 233.786 165.278 225.829C139.227 213.456 108.883 201.138 87.7761 194.371C72.9323 189.613 61.4826 186.798 61.1027 187.815C60.9669 188.176 67.0496 191.039 74.6188 194.177C102.634 205.79 129.741 219.314 156.279 233.94C165.609 239.083 208.65 246.337 213.011 255.918C213.576 257.16 204.692 254.677 200.564 253.201C190.641 249.649 179.651 247.613 169.461 244.834C157.879 241.677 119.302 230.164 109.086 226.816C96.8105 222.791 84.4445 219.039 72.1131 215.189C69.861 214.486 44.1647 206.447 50.5687 210.613C66.1035 220.723 102.885 236.239 129.73 244.007C146.247 248.787 174.33 251.55 191.699 258.365C201.959 262.39 175.315 260.362 173.185 260.148C166.853 259.512 158.234 258.499 154.033 257.898C138.026 255.607 127.371 254.526 115.444 253.982C108.656 253.673 92.5722 252.914 79.7011 252.294C66.8313 251.675 55.931 251.513 55.4775 251.934C54.0854 253.228 78.6133 259.422 96.1094 262.197C121.852 266.276 148.022 267.038 173.628 270.992C177.256 271.55 221.572 267.523 203.246 272.888C197.885 274.459 164.529 281.208 152.821 283.09C138.297 285.422 123.874 287.384 109.21 289.167C80.7795 292.625 70.377 294.122 70.1261 294.792C69.0897 297.56 99.8738 298.191 128.289 295.986C134.59 295.497 158.177 290.602 158.242 291.285C158.388 292.84 136.318 299.053 128.939 300.202C112.012 302.835 72.0403 314.756 74.5345 316.427C76.2141 317.551 101.727 314.352 119.885 310.741C125.497 309.625 208.79 278.024 209.564 279.726C209.828 280.305 171.147 299.029 157.705 305.194C146.489 310.339 135.626 315.755 124.816 321.647C109.559 329.965 88.7068 342.861 87.1275 344.958C86.4611 345.843 87.7394 345.837 90.9643 344.939ZM255.615 158.217C266.783 129.549 278.481 106.467 280.071 109.96C281.947 114.081 249.739 200.376 241.249 212.159C235.164 220.605 245.394 187.058 255.615 158.217Z" fill="white"/>
</svg>
